apps/scalable/opera-beta.svg

<svg height="48" width="48" xmlns="http://www.w3.org/2000/svg"><circle cx="23.940615" cy="31.534513" fill="#6ba4fa" opacity=".99" r="13.232998" transform="matrix(1.72140702696 0 0 1.72140725788 -17.2289093957 -30.06939350282)"/><path d="m24.458984 9.095703a14.906854 14.642858 0 0 0 -14.90625 14.642579 14.906854 14.642858 0 0 0 14.90625 14.642578 14.906854 14.642858 0 0 0 14.90625-14.642578 14.906854 14.642858 0 0 0 -14.90625-14.642579zm.101563 4.283204a7.5606599 10.353553 0 0 1 7.560547 10.353515 7.5606599 10.353553 0 0 1 -7.560547 10.353516 7.5606599 10.353553 0 0 1 -7.560547-10.353516 7.5606599 10.353553 0 0 1 7.560547-10.353515z" fill="#ffffff" fill-opacity=".464789"/><path d="m24.474609 9.085938a14.889087 14.661675 0 0 0 -14.888672 14.662109 14.889087 14.661675 0 0 0 14.888672 14.66211 14.889087 14.661675 0 0 0 9.525391-3.410157 11.959643 12.388832 0 0 1 -5.080078 1.1875 11.959643 12.388832 0 0 1 -11.960938-12.388672 11.959643 12.388832 0 0 1 11.960938-12.388671 11.959643 12.388832 0 0 1 5.382812 1.339843 14.889087 14.661675 0 0 0 -9.828125-3.664062z" fill="#f0fffffff"/></svg>

<?xml version="1.0" encoding="UTF-8" standalone="no"?>
<svg
   height="48"
   width="48"
   version="1.1"
   id="svg8"
   sodipodi:docname="opera-widget.svg"
   inkscape:version="1.1.2 (0a00cf5339, 2022-02-04)"
   xmlns:inkscape="http://www.inkscape.org/namespaces/inkscape"
   xmlns:sodipodi="http://sodipodi.sourceforge.net/DTD/sodipodi-0.dtd"
   xmlns="http://www.w3.org/2000/svg"
   xmlns:svg="http://www.w3.org/2000/svg">
  <defs
     id="defs12" />
  <sodipodi:namedview
     id="namedview10"
     pagecolor="#ffffff"
     bordercolor="#666666"
     borderopacity="1.0"
     inkscape:pageshadow="2"
     inkscape:pageopacity="0.0"
     inkscape:pagecheckerboard="0"
     showgrid="false"
     inkscape:zoom="13.604167"
     inkscape:cx="23.632466"
     inkscape:cy="24"
     inkscape:window-width="1920"
     inkscape:window-height="1028"
     inkscape:window-x="0"
     inkscape:window-y="24"
     inkscape:window-maximized="1"
     inkscape:current-layer="svg8" />
  <path
     id="circle2"
     transform="matrix(1.72140702696 0 0 1.72140725788 -17.2289093957 -30.06939350282)"
     style="opacity:0.99;fill:#81a1c1;fill-opacity:1"
     d="M 37.173613,31.534513 A 13.232998,13.232998 0 0 1 23.940615,44.767511 13.232998,13.232998 0 0 1 10.707617,31.534513 13.232998,13.232998 0 0 1 23.940615,18.301516 13.232998,13.232998 0 0 1 37.173613,31.534513 Z" />
  <path
     d="m24.458984 9.095703a14.906854 14.642858 0 0 0 -14.90625 14.642579 14.906854 14.642858 0 0 0 14.90625 14.642578 14.906854 14.642858 0 0 0 14.90625-14.642578 14.906854 14.642858 0 0 0 -14.90625-14.642579zm.101563 4.283204a7.5606599 10.353553 0 0 1 7.560547 10.353515 7.5606599 10.353553 0 0 1 -7.560547 10.353516 7.5606599 10.353553 0 0 1 -7.560547-10.353516 7.5606599 10.353553 0 0 1 7.560547-10.353515z"
     fill="#ffffff"
     fill-opacity=".464789"
     id="path4" />
  <path
     id="path6"
     d="M 24.474609 9.0859375 A 14.889087 14.661675 0 0 0 9.5859375 23.748047 A 14.889087 14.661675 0 0 0 24.474609 38.410156 A 14.889087 14.661675 0 0 0 34 35 A 11.959643 12.388832 0 0 1 28.919922 36.1875 A 11.959643 12.388832 0 0 1 16.958984 23.798828 A 11.959643 12.388832 0 0 1 28.919922 11.410156 A 11.959643 12.388832 0 0 1 34.302734 12.75 A 14.889087 14.661675 0 0 0 24.474609 9.0859375 z "
     style="fill:#ffffff" />
</svg>
